X: 1186
T: The Bank of Ireland
M:C|
L:1/8
R:Reel
B:O'Neill's 1186
N:Collected by J. O'Neill
Z:Transcribed by Trish O'Neil, oneil@cybernw.com
K:D
(ed) \
| cAAB {d}cABG | (EG)DG  (EG)DB | {d}cAAB T(cA)(BG) |1 Addc defd :|2 Addc d2 |
| (de) \
| f2fde2ec | dfed cAAg | Tf2fee2{f}ed | eaag ed dz |
| fgaf efge | dfed T(cA)(AG) | (Ad){e}dc (de)fg | (af)ge (df)ed |]


